assets/images/toolchain-column-1.svg

<svg width="44" height="44" viewBox="0 0 44 44" fill="none" xmlns="http://www.w3.org/2000/svg">
<g clip-path="url(#clip0_2229_3173)">
<g clip-path="url(#clip1_2229_3173)">
<path d="M51.0113 12.6379C50.873 12.4981 49.6197 11.3304 46.9301 11.3304C46.2343 11.3304 45.5141 11.4152 44.8183 11.5599C44.3096 7.20835 41.3637 5.10242 41.2457 4.99263L40.5255 4.47862L40.0616 5.30203C39.4838 6.40989 39.0403 7.66247 38.788 8.94C38.2997 11.4152 38.6008 13.7457 39.6221 15.7369C38.3933 16.5902 36.3995 16.7898 35.9804 16.8198H3.04988C2.19132 16.8198 1.49552 17.6731 1.49552 18.7261C1.45076 22.2543 1.93497 25.7775 2.93188 29.106C4.06713 32.744 5.75984 35.4488 7.94083 37.0956C10.3985 38.942 14.4106 39.995 18.9312 39.995C20.9698 39.995 23.0124 39.7655 25.0307 39.3113C27.8383 38.6875 30.5279 37.4898 33.0059 35.7582C35.0486 34.306 36.8796 32.4596 38.434 30.2987C41.0544 26.6857 42.6088 22.6485 43.7441 19.0654C43.9068 19.0654 44.0452 19.0654 44.2079 19.0654C47.0603 19.0654 48.8222 17.6731 49.7947 16.4754C50.4457 15.7369 50.9299 14.8236 51.2799 13.8006L51.4874 13.062L51.0113 12.6379ZM30.6296 15.652H35.0364C35.2439 15.652 35.4311 15.4524 35.4311 15.168V10.3323C35.4311 10.0778 35.2683 9.84825 35.0364 9.84825H30.6296C30.4221 9.84825 30.2349 10.0479 30.2349 10.3323V15.168C30.2594 15.4524 30.4221 15.652 30.6296 15.652ZM24.4854 1.80379H28.8922C29.0997 1.80379 29.2869 1.60417 29.2869 1.31972V-3.51594C29.2869 -3.77044 29.0997 -4 28.8922 -4H24.4854C24.2779 -4 24.0907 -3.80039 24.0907 -3.51594V1.31972C24.0907 1.57423 24.2738 1.80379 24.4854 1.80379ZM24.4854 8.74039H28.8922C29.0997 8.74039 29.2869 8.51083 29.2869 8.25632V3.42067C29.2869 3.16616 29.0997 2.9366 28.8922 2.9366H24.4854C24.2779 2.9366 24.0907 3.13621 24.0907 3.42067V8.25632C24.0907 8.51582 24.2738 8.74039 24.4854 8.74039ZM18.386 8.74039H22.7927C23.0002 8.74039 23.1874 8.51083 23.1874 8.25632V3.42067C23.1874 3.16616 23.0247 2.9366 22.7927 2.9366H18.386C18.1785 2.9366 17.9913 3.13621 17.9913 3.42067V8.25632C17.9913 8.51582 18.154 8.74039 18.386 8.74039ZM12.1929 8.74039H16.5997C16.8072 8.74039 16.9944 8.51083 16.9944 8.25632V3.42067C16.9944 3.16616 16.8316 2.9366 16.5997 2.9366H12.1929C11.9854 2.9366 11.7983 3.13621 11.7983 3.42067V8.25632C11.8227 8.51582 11.9854 8.74039 12.1929 8.74039ZM24.4854 15.652H28.8922C29.0997 15.652 29.2869 15.4524 29.2869 15.168V10.3323C29.2869 10.0778 29.1241 9.84825 28.8922 9.84825H24.4854C24.2779 9.84825 24.0907 10.0479 24.0907 10.3323V15.168C24.0907 15.4524 24.2738 15.652 24.4854 15.652ZM18.386 15.652H22.7927C23.0002 15.652 23.1874 15.4524 23.1874 15.168V10.3323C23.1874 10.0778 23.0247 9.84825 22.7927 9.84825H18.386C18.1785 9.84825 17.9913 10.0479 17.9913 10.3323V15.168C17.9913 15.4524 18.154 15.652 18.386 15.652ZM12.1929 15.652H16.5997C16.8072 15.652 16.9944 15.4524 16.9944 15.168V10.3323C16.9944 10.0778 16.8316 9.84825 16.5997 9.84825H12.1929C11.9854 9.84825 11.7983 10.0479 11.7983 10.3323V15.168C11.8227 15.4524 11.9854 15.652 12.1929 15.652ZM6.11791 15.652H10.5247C10.7322 15.652 10.9193 15.4524 10.9193 15.168V10.3323C10.9193 10.0778 10.7566 9.84825 10.5247 9.84825H6.11791C5.91039 9.84825 5.72322 10.0479 5.72322 10.3323V15.168C5.74763 15.4524 5.91039 15.652 6.11791 15.652Z" fill="#0091E2"/>
</g>
</g>
<defs>
<clipPath id="clip0_2229_3173">
<rect width="44" height="44" fill="white"/>
</clipPath>
<clipPath id="clip1_2229_3173">
<rect width="50" height="44" fill="white" transform="translate(1.5 -4)"/>
</clipPath>
</defs>
</svg>

<svg xmlns="http://www.w3.org/2000/svg" width="44" height="44" fill="none"><g clip-path="url(#a)"><g clip-path="url(#b)"><path fill="#0091E2" d="M51.011 12.638c-.138-.14-1.391-1.308-4.08-1.308-.697 0-1.417.085-2.113.23-.508-4.352-3.454-6.458-3.572-6.567l-.72-.514-.464.823a13.7 13.7 0 0 0-1.274 3.638c-.488 2.475-.187 4.806.834 6.797-1.229.853-3.222 1.053-3.642 1.083H3.05c-.859 0-1.554.853-1.554 1.906a34.8 34.8 0 0 0 1.436 10.38c1.135 3.638 2.828 6.343 5.009 7.99 2.458 1.846 6.47 2.899 10.99 2.899 2.039 0 4.081-.23 6.1-.684 2.807-.623 5.497-1.821 7.975-3.553 2.043-1.452 3.874-3.298 5.428-5.46 2.62-3.612 4.175-7.65 5.31-11.233h.464c2.852 0 4.614-1.392 5.587-2.59.65-.738 1.135-1.651 1.485-2.674l.207-.739zM30.63 15.652h4.406c.208 0 .395-.2.395-.484v-4.836c0-.254-.163-.484-.395-.484H30.63c-.208 0-.395.2-.395.484v4.836c.024.284.187.484.395.484M24.485 1.804h4.407c.208 0 .395-.2.395-.484v-4.836c0-.254-.187-.484-.395-.484h-4.407c-.207 0-.394.2-.394.484V1.32c0 .254.183.484.394.484m0 6.936h4.407c.208 0 .395-.23.395-.484V3.421c0-.255-.187-.484-.395-.484h-4.407c-.207 0-.394.2-.394.484v4.835c0 .26.183.484.394.484m-6.099 0h4.407c.207 0 .394-.23.394-.484V3.421c0-.255-.162-.484-.394-.484h-4.407c-.207 0-.395.2-.395.484v4.835c0 .26.163.484.395.484m-6.193 0H16.6c.207 0 .394-.23.394-.484V3.421c0-.255-.162-.484-.394-.484h-4.407c-.208 0-.395.2-.395.484v4.835c.025.26.187.484.395.484m12.292 6.912h4.407c.208 0 .395-.2.395-.484v-4.836c0-.254-.163-.484-.395-.484h-4.407c-.207 0-.394.2-.394.484v4.836c0 .284.183.484.394.484m-6.099 0h4.407c.207 0 .394-.2.394-.484v-4.836c0-.254-.162-.484-.394-.484h-4.407c-.207 0-.395.2-.395.484v4.836c0 .284.163.484.395.484m-6.193 0H16.6c.207 0 .394-.2.394-.484v-4.836c0-.254-.162-.484-.394-.484h-4.407c-.208 0-.395.2-.395.484v4.836c.025.284.187.484.395.484m-6.075 0h4.407c.207 0 .394-.2.394-.484v-4.836c0-.254-.162-.484-.394-.484H6.118c-.208 0-.395.2-.395.484v4.836c.025.284.187.484.395.484"/></g></g><defs><clipPath id="a"><path fill="#fff" d="M0 0h44v44H0z"/></clipPath><clipPath id="b"><path fill="#fff" d="M1.5-4h50v44h-50z"/></clipPath></defs></svg>
